X: 1
T: Donald McDonald's
M: 4/4
L: 1/8
R: reel
K: Amin
|: A2 A2 GAAB | e2 de gede | a2 ea gede | A2 A2 BGGB |
A2 A2 GAAB | e2 de gede | a2 ea gedB | A2 A2 GA A2  :|
|: a2 ea gede | a2 ea gee^f | g2 ea edBe | A2 A2 BGGB |
A2 A2 GAAB | e2 de gede | a2 ea gedB | A2 A2 GA A2  :|
